humanity-icon-theme/Humanity/devices/16/audio-input-microphone.svg

<?xml version="1.0" encoding="UTF-8" standalone="no"?>
<!-- Created with Inkscape (http://www.inkscape.org/) -->

<svg
   xmlns:svg="http://www.w3.org/2000/svg"
   xmlns="http://www.w3.org/2000/svg"
   xmlns:xlink="http://www.w3.org/1999/xlink"
   version="1.0"
   width="16"
   height="16"
   id="svg2">
  <defs
     id="defs4">
    <linearGradient
       id="linearGradient3622">
      <stop
         id="stop3624"
         style="stop-color:#3c3c3c;stop-opacity:1"
         offset="0" />
      <stop
         id="stop3626"
         style="stop-color:#1e1e1e;stop-opacity:1"
         offset="1" />
    </linearGradient>
    <linearGradient
       id="linearGradient3324">
      <stop
         id="stop3326"
         style="stop-color:#ffffff;stop-opacity:1"
         offset="0" />
      <stop
         id="stop3328"
         style="stop-color:#ffffff;stop-opacity:0"
         offset="1" />
    </linearGradient>
    <linearGradient
       x1="17.676191"
       y1="28.647619"
       x2="15.542857"
       y2="26.971428"
       id="linearGradient4429"
       xlink:href="#linearGradient3324"
       gradientUnits="userSpaceOnUse"
       gradientTransform="matrix(0.6435676,0,0,0.6283907,-5.5307498,-1.6478643)" />
    <linearGradient
       id="linearGradient3155">
      <stop
         id="stop3157"
         style="stop-color:#f0f0f0;stop-opacity:1"
         offset="0" />
      <stop
         id="stop3159"
         style="stop-color:#9b9b9b;stop-opacity:1"
         offset="1" />
    </linearGradient>
    <radialGradient
       cx="37.97171"
       cy="11.217601"
       r="10.024096"
       fx="37.97171"
       fy="11.217601"
       id="radialGradient4432"
       xlink:href="#linearGradient3155"
       gradientUnits="userSpaceOnUse"
       gradientTransform="matrix(0.60661043,0.01127182,-0.01092652,0.60630977,-4.1778358,-3.3357922)" />
    <linearGradient
       id="linearGradient3685">
      <stop
         id="stop3687"
         style="stop-color:#ffffff;stop-opacity:0"
         offset="0" />
      <stop
         id="stop3689"
         style="stop-color:#000000;stop-opacity:0.49803922"
         offset="0.77083331" />
      <stop
         id="stop3691"
         style="stop-color:#000000;stop-opacity:1"
         offset="1" />
    </linearGradient>
    <radialGradient
       cx="31.00248"
       cy="20.938292"
       r="0.91428572"
       fx="31.00248"
       fy="20.938292"
       id="radialGradient4596"
       xlink:href="#linearGradient3685"
       gradientUnits="userSpaceOnUse"
       gradientTransform="matrix(10.024331,0.18763351,-0.18343892,10.253549,-286.44733,-216.55653)" />
    <linearGradient
       x1="32.302921"
       y1="18.646013"
       x2="34.589996"
       y2="16.08078"
       id="linearGradient4609"
       xlink:href="#linearGradient3165"
       gradientUnits="userSpaceOnUse"
       gradientTransform="matrix(0.50352448,0.01030998,-0.0090697,0.55457246,-0.56473541,-2.4696947)" />
    <linearGradient
       x1="34.204147"
       y1="17.333593"
       x2="39.000122"
       y2="23.11928"
       id="linearGradient4606"
       xlink:href="#linearGradient3179"
       gradientUnits="userSpaceOnUse"
       gradientTransform="matrix(0.50352448,0.01030998,-0.0090697,0.55457246,-0.56473541,-2.4696947)"
       spreadMethod="reflect" />
    <linearGradient
       id="linearGradient3449">
      <stop
         id="stop3451"
         style="stop-color:#ffffff;stop-opacity:1"
         offset="0" />
      <stop
         id="stop3453"
         style="stop-color:#9b9b9b;stop-opacity:0"
         offset="1" />
    </linearGradient>
    <radialGradient
       cx="37.97171"
       cy="11.217601"
       r="10.024096"
       fx="37.97171"
       fy="11.217601"
       id="radialGradient4602"
       xlink:href="#linearGradient3449"
       gradientUnits="userSpaceOnUse"
       gradientTransform="matrix(0.60661033,0.01127153,-0.01092652,0.60629392,-4.1778309,-3.3356661)" />
    <linearGradient
       id="linearGradient3165">
      <stop
         id="stop3167"
         style="stop-color:#1e1e1e;stop-opacity:1"
         offset="0" />
      <stop
         id="stop3173"
         style="stop-color:#8d8d8d;stop-opacity:1"
         offset="0.26635548" />
      <stop
         id="stop3169"
         style="stop-color:#eeeeee;stop-opacity:1"
         offset="1" />
    </linearGradient>
    <linearGradient
       x1="26.545988"
       y1="25.604839"
       x2="28.415308"
       y2="23.37669"
       id="linearGradient4339"
       xlink:href="#linearGradient3165"
       gradientUnits="userSpaceOnUse"
       gradientTransform="matrix(0.6435676,0,0,0.6283907,-4.5383864,-4.7948011)" />
    <linearGradient
       id="linearGradient3179">
      <stop
         id="stop3181"
         style="stop-color:#ffffff;stop-opacity:1"
         offset="0" />
      <stop
         id="stop3183"
         style="stop-color:#ffffff;stop-opacity:0"
         offset="1" />
    </linearGradient>
    <linearGradient
       x1="27.500908"
       y1="24.468029"
       x2="31.416487"
       y2="28.492336"
       id="linearGradient4336"
       xlink:href="#linearGradient3179"
       gradientUnits="userSpaceOnUse"
       gradientTransform="matrix(0.6406125,0,0,0.6305674,-4.2302166,-4.778761)"
       spreadMethod="reflect" />
    <radialGradient
       cx="11.305895"
       cy="8.3027325"
       r="8.7034845"
       fx="11.305895"
       fy="8.3027325"
       id="radialGradient3628"
       xlink:href="#linearGradient3622"
       gradientUnits="userSpaceOnUse"
       gradientTransform="matrix(-0.75215422,1.7163962,-0.68816332,-0.31291346,24.728001,-7.6690858)" />
  </defs>
  <g
     transform="matrix(0.72727244,0,0,0.72715331,-0.99827015,-0.4516793)"
     id="layer1">
    <path
       d="M 21.999094,7.6020835 A 5.5007203,5.4965697 25.00122 1 1 11.00092,7.3977192 5.5007203,5.4965697 25.00122 1 1 21.999094,7.6020835 z"
       id="path2383"
       style="fill:url(#radialGradient4432);fill-opacity:1;stroke:none" />
    <path
       d="M 21.74822,7.5978728 A 5.3745271,5.4974217 0 1 1 11.000967,7.3967077 5.3745271,5.4974217 0 1 1 21.74822,7.5978728 z"
       id="path3681"
       style="opacity:0.19069764;fill:url(#radialGradient4596);fill-opacity:1;stroke:none" />
    <path
       d="m 13.127573,3.3716128 c 0,0 1.99827,2.9835932 7.451303,7.4780512 0.222807,0.18364 -0.422069,0.951096 -0.64316,0.735418 0,0 -3.376319,-1.822492 -7.502458,-7.3186841 -0.204417,-0.2722901 0.153463,-0.4780937 0.694315,-0.8947851 z"
       id="path3163"
       style="fill:url(#linearGradient4609);fill-opacity:1;fill-rule:evenodd;stroke:none" />
    <path
       d="m 13.127573,3.3716128 c 0,0 1.99827,2.9835932 7.451303,7.4780512 0.222807,0.18364 -0.422069,0.951096 -0.64316,0.735418 0,0 -3.376319,-1.822492 -7.502458,-7.3186841 -0.204417,-0.2722901 0.153463,-0.4780937 0.694315,-0.8947851 z"
       id="path3177"
       style="opacity:0.67441861;fill:url(#linearGradient4606);fill-opacity:1;fill-rule:evenodd;stroke:none" />
    <path
       d="M 21.999094,7.6019236 A 5.5006945,5.4964508 24.262456 1 1 11.000922,7.3975647 5.5006945,5.4964508 24.262456 1 1 21.999094,7.6019236 z"
       id="path2677"
       style="opacity:0.47906979;fill:url(#radialGradient4602);fill-opacity:1;stroke:none" />
    <path
       d="M 11.000004,7.4972902 1.375,19.273357 c 0.5776362,3.207784 3.8509079,3.351417 3.8509079,3.351417 L 16.500007,12.998193 11.000004,7.4972902 z"
       id="path3320"
       style="fill:url(#radialGradient3628);fill-opacity:1;fill-rule:evenodd;stroke:none" />
    <path
       d="M 12.375005,10.247742 C 1.0466829,22.844882 2.5514137,21.16732 2.5514137,21.16732 c 0,0 -1.129758,-1.020127 -1.1787917,-1.738287 L 10.55231,8.3106299 c 0,0 0.844845,1.0549553 1.822695,1.9371121 z"
       id="path3322"
       style="opacity:0.41999996;fill:url(#linearGradient4429);fill-opacity:1;fill-rule:evenodd;stroke:none" />
    <path
       d="m 15.800489,13.480982 c 0.468232,-0.05715 1.580286,-0.714362 1.580286,-0.714362 -1.609551,-0.800084 -6.496734,-5.6005886 -6.496734,-5.6005886 0,0 -0.848672,1.0858295 -0.760878,1.4001475 0,0 2.809398,3.2574851 5.677326,4.9148031 z"
       id="path3302"
       style="fill:url(#linearGradient4339);fill-opacity:1;fill-rule:evenodd;stroke:none" />
    <path
       d="m 16.015267,13.560329 c 0.466082,-0.05735 1.57303,-0.716836 1.57303,-0.716836 -1.602161,-0.802856 -6.466903,-5.619989 -6.466903,-5.619989 0,0 -0.844775,1.089591 -0.757384,1.404998 0,0 2.796498,3.268768 5.651257,4.931827 z"
       id="path3316"
       style="opacity:0.52558139;fill:url(#linearGradient4336);fill-opacity:1;fill-rule:evenodd;stroke:none" />
  </g>
</svg>

<?xml version="1.0" encoding="UTF-8" standalone="no"?>
<!-- Created with Inkscape (http://www.inkscape.org/) -->
<svg id="svg2" xmlns="http://www.w3.org/2000/svg" height="16" width="16" version="1.0" xmlns:xlink="http://www.w3.org/1999/xlink">
 <defs id="defs4">
  <linearGradient id="linearGradient4429" y2="26.971" gradientUnits="userSpaceOnUse" x2="15.543" gradientTransform="matrix(.64357 0 0 .62839 -5.5307 -1.6479)" y1="28.648" x1="17.676">
   <stop id="stop3326" style="stop-color:#fff" offset="0"/>
   <stop id="stop3328" style="stop-color:#fff;stop-opacity:0" offset="1"/>
  </linearGradient>
  <radialGradient id="radialGradient4432" gradientUnits="userSpaceOnUse" cy="11.218" cx="37.972" gradientTransform="matrix(.60661 .011272 -.010927 .60631 -4.1778 -3.3358)" r="10.024">
   <stop id="stop3157" style="stop-color:#f0f0f0" offset="0"/>
   <stop id="stop3159" style="stop-color:#9b9b9b" offset="1"/>
  </radialGradient>
  <radialGradient id="radialGradient4596" gradientUnits="userSpaceOnUse" cy="20.938" cx="31.002" gradientTransform="matrix(10.024 .18763 -.18344 10.254 -286.45 -216.56)" r=".91429">
   <stop id="stop3687" style="stop-color:#fff;stop-opacity:0" offset="0"/>
   <stop id="stop3689" style="stop-opacity:.49804" offset=".77083"/>
   <stop id="stop3691" offset="1"/>
  </radialGradient>
  <linearGradient id="linearGradient4609" y2="16.081" xlink:href="#linearGradient3165" gradientUnits="userSpaceOnUse" x2="34.59" gradientTransform="matrix(.50352 .010310 -.0090697 .55457 -.56474 -2.4697)" y1="18.646" x1="32.303"/>
  <linearGradient id="linearGradient4606" y2="23.119" xlink:href="#linearGradient3179" spreadMethod="reflect" gradientUnits="userSpaceOnUse" x2="39" gradientTransform="matrix(.50352 .010310 -.0090697 .55457 -.56474 -2.4697)" y1="17.334" x1="34.204"/>
  <radialGradient id="radialGradient4602" gradientUnits="userSpaceOnUse" cy="11.218" cx="37.972" gradientTransform="matrix(.60661 .011272 -.010927 .60629 -4.1778 -3.3357)" r="10.024">
   <stop id="stop3451" style="stop-color:#fff" offset="0"/>
   <stop id="stop3453" style="stop-color:#9b9b9b;stop-opacity:0" offset="1"/>
  </radialGradient>
  <linearGradient id="linearGradient3165">
   <stop id="stop3167" style="stop-color:#1e1e1e" offset="0"/>
   <stop id="stop3173" style="stop-color:#8d8d8d" offset=".26636"/>
   <stop id="stop3169" style="stop-color:#eee" offset="1"/>
  </linearGradient>
  <linearGradient id="linearGradient4339" y2="23.377" xlink:href="#linearGradient3165" gradientUnits="userSpaceOnUse" x2="28.415" gradientTransform="matrix(.64357 0 0 .62839 -4.5384 -4.7948)" y1="25.605" x1="26.546"/>
  <linearGradient id="linearGradient3179">
   <stop id="stop3181" style="stop-color:#fff" offset="0"/>
   <stop id="stop3183" style="stop-color:#fff;stop-opacity:0" offset="1"/>
  </linearGradient>
  <linearGradient id="linearGradient4336" y2="28.492" xlink:href="#linearGradient3179" spreadMethod="reflect" gradientUnits="userSpaceOnUse" x2="31.416" gradientTransform="matrix(.64061 0 0 .63057 -4.2302 -4.7788)" y1="24.468" x1="27.501"/>
  <radialGradient id="radialGradient3628" gradientUnits="userSpaceOnUse" cy="8.3027" cx="11.306" gradientTransform="matrix(-.75215 1.7164 -.68816 -.31291 24.728 -7.6691)" r="8.7035">
   <stop id="stop3624" style="stop-color:#3c3c3c" offset="0"/>
   <stop id="stop3626" style="stop-color:#1e1e1e" offset="1"/>
  </radialGradient>
 </defs>
 <g id="layer1" transform="matrix(.72727 0 0 .72715 -.99827 -.45168)">
  <path id="path2383" style="fill:url(#radialGradient4432)" d="m21.999 7.6021a5.5007 5.4966 25.001 1 1 -10.998 -0.2044 5.5007 5.4966 25.001 1 1 10.998 0.2044z"/>
  <path id="path3681" style="opacity:.19070;fill:url(#radialGradient4596)" d="m21.748 7.5979a5.3745 5.4974 0 1 1 -10.747 -0.2012 5.3745 5.4974 0 1 1 10.747 0.2012z"/>
  <path id="path3163" style="fill:url(#linearGradient4609);fill-rule:evenodd" d="m13.128 3.3716s1.9983 2.9836 7.4513 7.4781c0.22281 0.18364-0.42207 0.9511-0.64316 0.73542 0 0-3.3763-1.8225-7.5025-7.3187-0.20442-0.27229 0.15346-0.47809 0.69432-0.89479z"/>
  <path id="path3177" style="opacity:.67442;fill:url(#linearGradient4606);fill-rule:evenodd" d="m13.128 3.3716s1.9983 2.9836 7.4513 7.4781c0.22281 0.18364-0.42207 0.9511-0.64316 0.73542 0 0-3.3763-1.8225-7.5025-7.3187-0.20442-0.27229 0.15346-0.47809 0.69432-0.89479z"/>
  <path id="path2677" style="opacity:.47907;fill:url(#radialGradient4602)" d="m21.999 7.6019a5.5007 5.4965 24.262 1 1 -10.998 -0.2043 5.5007 5.4965 24.262 1 1 10.998 0.2043z"/>
  <path id="path3320" style="fill:url(#radialGradient3628);fill-rule:evenodd" d="m11 7.4973-9.625 11.776c0.57764 3.2078 3.8509 3.3514 3.8509 3.3514l11.274-9.626-5.5-5.5007z"/>
  <path id="path3322" style="opacity:0.42;fill:url(#linearGradient4429);fill-rule:evenodd" d="m12.375 10.248c-11.328 12.597-9.8236 10.919-9.8236 10.919s-1.1298-1.0201-1.1788-1.7383l9.1794-11.118s0.84484 1.055 1.8227 1.9371z"/>
  <path id="path3302" style="fill:url(#linearGradient4339);fill-rule:evenodd" d="m15.8 13.481c0.46823-0.05715 1.5803-0.71436 1.5803-0.71436-1.6096-0.80008-6.4967-5.6006-6.4967-5.6006s-0.84867 1.0858-0.76088 1.4001c0 0 2.8094 3.2575 5.6773 4.9148z"/>
  <path id="path3316" style="opacity:.52558;fill:url(#linearGradient4336);fill-rule:evenodd" d="m16.015 13.56c0.46608-0.05735 1.573-0.71684 1.573-0.71684-1.6022-0.80286-6.4669-5.62-6.4669-5.62s-0.84478 1.0896-0.75738 1.405c0 0 2.7965 3.2688 5.6513 4.9318z"/>
 </g>
</svg>
